X: 32179
T: Peter Wyper's
R: hornpipe
M: 4/4
K: Dmajor
AG|:FDA,D FAdA|GFED CEAG|FAdf gefd|e/f/e d/c/B A/B/A G/F/E|
FDA,D FAdA|G/F/E F/E/D CEAG|FAdf eAce|1 d2 f2 d2 AG:|2 d2 f2 d2 ed||
cdef gfge|defg agfa|gBdg fAdf|e/f/e d/c/B A/B/A G/F/E|
FDA,D FAdA|G/F/E F/E/D CEAG|FAdf eAce|1 d2 f2 d2 ed:|2 d2 f2 d2 AG||

